X:1
T:The Finding of Moses
M:4/4
L:1/8
K:D
 A|D-FA-B A2A-F| DF A3/2 B/2 A3 A| B2 EE F2 DF| AF EF D3| A|D-FA-B A2 AF|\
 DF AB A4| BB EE FF DF| AF EF D3| A| d2c-B A F3| dd cB A4-| AB BBB-cd-B|\
 AB AG F3| E|D-EA-B A2 AF| DF AB A3 A| BB EE F2D-F| A/2A/2 FE F D3||\
